assets/icons/logo.svg

<?xml version="1.0" encoding="UTF-8" standalone="no"?>
<svg
   xmlns:dc="http://purl.org/dc/elements/1.1/"
   xmlns:cc="http://creativecommons.org/ns#"
   xmlns:rdf="http://www.w3.org/1999/02/22-rdf-syntax-ns#"
   xmlns:svg="http://www.w3.org/2000/svg"
   xmlns="http://www.w3.org/2000/svg"
   xmlns:sodipodi="http://sodipodi.sourceforge.net/DTD/sodipodi-0.dtd"
   xmlns:inkscape="http://www.inkscape.org/namespaces/inkscape"
   version="1.1"
   viewbox="0 0 1200 1200"
   style="clip-rule:evenodd;fill-rule:evenodd;image-rendering:optimizeQuality;shape-rendering:geometricPrecision;text-rendering:geometricPrecision"
   id="svg38"
   sodipodi:docname="logo.svg"
   inkscape:version="0.92.5 (2060ec1f9f, 2020-04-08)"
   width="1206.3328"
   height="634.47327">
  <metadata
     id="metadata44">
    <rdf:RDF>
      <cc:Work
         rdf:about="">
        <dc:format>image/svg+xml</dc:format>
        <dc:type
           rdf:resource="http://purl.org/dc/dcmitype/StillImage" />
        <dc:title />
      </cc:Work>
    </rdf:RDF>
  </metadata>
  <defs
     id="defs42" />
  <sodipodi:namedview
     pagecolor="#ffffff"
     bordercolor="#666666"
     borderopacity="1"
     objecttolerance="10"
     gridtolerance="10"
     guidetolerance="10"
     inkscape:pageopacity="0"
     inkscape:pageshadow="2"
     inkscape:window-width="2560"
     inkscape:window-height="1388"
     id="namedview40"
     showgrid="false"
     inkscape:zoom="0.7071068"
     inkscape:cx="836.38381"
     inkscape:cy="485.00553"
     inkscape:window-x="2048"
     inkscape:window-y="588"
     inkscape:window-maximized="1"
     inkscape:current-layer="svg38"
     fit-margin-top="5"
     fit-margin-left="5"
     fit-margin-right="5"
     fit-margin-bottom="5"
     showguides="true"
     inkscape:guide-bbox="true"
     inkscape:snap-global="true" />
  <path
     style="fill:#ffffff;fill-opacity:1;stroke:none;stroke-width:28.04952812;stroke-linecap:round;stroke-linejoin:round;stroke-miterlimit:4;stroke-dasharray:none;stroke-opacity:1"
     d="M 5.0675731,597.90005 1201.3328,599.5347 1189.2686,611.34406 16.666393,611.5347 Z"
     id="rect849"
     inkscape:connector-curvature="0"
     sodipodi:nodetypes="ccccc" />
  <g
     id="g4"
     transform="translate(1.8327854,-292.9653)">
    <path
       style="opacity:0.98200001;fill:#000000"
       d="m 1199.5,887.5 v 5 c -23.63,1.553 -47.3,2.386 -71,2.5 H 74.5 c -22.0173,-0.196 -44.0173,-0.863 -66,-2 -1.66667,-0.333 -3.33333,-0.667 -5,-1 -1.10997,-3.916 0.5567,-5.916 5,-6 37.6351,-1.989 76.5517,-2.822 114.25,-2.5 V 309.75 c -0.04,-6.6885 3.1055,-9.7305 9.75,-9.75 l 947,-1.5 c 7.3614,0.12608 7.2097,3.82062 7.5,9.25 l 1.5,573.75 c 32.66,0.99 65.33,2.157 98,3.5 4.47,0.265 8.8,1.099 13,2.5 z"
       id="path2"
       inkscape:connector-curvature="0"
       sodipodi:nodetypes="ccccccccccccccc" />
  </g>
  <rect
     style="fill:#f2f2f2;fill-opacity:1;stroke:none;stroke-width:14.10571861;stroke-linecap:round;stroke-linejoin:round;stroke-miterlimit:4;stroke-dasharray:none;stroke-opacity:1"
     id="rect828"
     width="862.64435"
     height="505.04471"
     x="171.84422"
     y="57.957573" />
  <g
     id="g8"
     transform="translate(1.8327854,-292.9653)" />
  <g
     id="g12"
     transform="translate(-0.63493853,-272.9653)"
     style="fill:#ffffff;stroke:#000000;stroke-width:15.11811066;stroke-miterlimit:4;stroke-dasharray:none">
    <path
       style="opacity:0.93199978;fill:#ffffff;stroke:#000000;stroke-width:15.11811066;stroke-miterlimit:4;stroke-dasharray:none"
       d="m 495.5,376.5 c 60.781,-1.864 107.614,22.469 140.5,73 21.52,-2.759 43.02,-2.592 64.5,0.5 25.105,5.551 47.105,16.884 66,34 10.018,10.418 20.018,20.751 30,31 45.148,-4.501 85.148,7.499 120,36 48.038,47.186 60.205,102.353 36.5,165.5 -19.361,40.693 -50.527,67.86 -93.5,81.5 -5.617,1.052 -11.284,1.718 -17,2 l -447,1 c -15.382,-0.28 -30.715,-1.28 -46,-3 -13.855,-2.061 -26.521,-7.061 -38,-15 -58.123,-41.126 -79.29,-96.626 -63.5,-166.5 14.085,-41.423 40.918,-71.589 80.5,-90.5 13.98737,-6.81937 23.112,-7.777 35,-10.5 5.245,-53.345 30.579,-93.845 76,-121.5 17.69,-9.399 36.357,-15.233 56,-17.5 z"
       id="path10"
       inkscape:connector-curvature="0"
       sodipodi:nodetypes="ccccccccccccccccc" />
  </g>
  <g
     id="g36"
     transform="translate(-2.8336073,-292.9653)">
    <path
       style="opacity:0.947;fill:#000000"
       d="m 1094.5,902.85355 c 36.05,0.026 62.05,-0.16155 98,1.14645 -2.39,1.861 -5.05,3.194 -8,4 -24.21,6.792 -48.88,10.792 -74,12 -311.997,2.874 -623.997,3.208 -936,1 -31.348,-0.147 -62.682,-0.814 -94,-2 C 62.2602,916.485 52.83387,915.47065 35.07367,910.65165 32.46137,910.01265 21.5543,906.194 19.5,904.5 c 12.019293,-1.00178 62.256885,-1.55984 107.86396,-1.64645 z"
       id="path34"
       inkscape:connector-curvature="0"
       sodipodi:nodetypes="cccccccccc" />
  </g>
  <g
     id="g843"
     transform="translate(-13.797731)">
    <rect
       transform="matrix(0.88450881,0.4665235,-0.88450881,0.4665235,0,0)"
       y="-103.65459"
       x="595.69012"
       height="142.05777"
       width="142.05777"
       id="rect858"
       style="fill:none;fill-opacity:0.72361809;stroke:#4d4d4d;stroke-width:10.40099049;stroke-linecap:round;stroke-linejoin:round;stroke-miterlimit:4;stroke-dasharray:none;stroke-opacity:1" />
    <path
       inkscape:connector-curvature="0"
       id="rect858-3"
       d="m 712.79775,341.47217 26.4242,13.93713 -125.65134,66.27329 -125.65135,-66.27329 31.42905,-16.57687"
       style="clip-rule:evenodd;fill:none;fill-opacity:0.72361809;fill-rule:evenodd;stroke:#4d4d4d;stroke-width:9.44881916;stroke-linecap:round;stroke-linejoin:round;stroke-miterlimit:4;stroke-dasharray:none;stroke-opacity:1;image-rendering:optimizeQuality;shape-rendering:geometricPrecision;text-rendering:geometricPrecision" />
    <path
       inkscape:connector-curvature="0"
       style="clip-rule:evenodd;fill:none;fill-opacity:0.72361809;fill-rule:evenodd;stroke:#4d4d4d;stroke-width:9.44881916;stroke-linecap:round;stroke-linejoin:round;stroke-miterlimit:4;stroke-dasharray:none;stroke-opacity:1;image-rendering:optimizeQuality;shape-rendering:geometricPrecision;text-rendering:geometricPrecision"
       d="m 712.79775,403.47217 26.4242,13.93713 -125.65134,66.27329 -125.65135,-66.27329 31.42905,-16.57687"
       id="path895" />
  </g>
  <circle
     style="fill:#e6e6e6;fill-opacity:0.72361809;stroke:none;stroke-width:9.30569458;stroke-linecap:round;stroke-linejoin:round;stroke-miterlimit:4;stroke-dasharray:none;stroke-opacity:1"
     id="path897"
     cx="603.16638"
     cy="30.270933"
     r="12.749326" />
</svg>

<?xml version="1.0" encoding="UTF-8"?>
<!DOCTYPE svg PUBLIC "-//W3C//DTD SVG 1.1//EN" "http://www.w3.org/Graphics/SVG/1.1/DTD/svg11.dtd">
<svg xmlns="http://www.w3.org/2000/svg" version="1.1" viewbox="0 0 1200 1200" style="shape-rendering:geometricPrecision; text-rendering:geometricPrecision; image-rendering:optimizeQuality; fill-rule:evenodd; clip-rule:evenodd" xmlns:xlink="http://www.w3.org/1999/xlink">
<g><path style="opacity:0.982" fill="#000000" d="M 1199.5,887.5 C 1199.5,889.167 1199.5,890.833 1199.5,892.5C 1175.87,894.053 1152.2,894.886 1128.5,895C 777.167,895.667 425.833,895.667 74.5,895C 52.4827,894.804 30.4827,894.137 8.5,893C 6.83333,892.667 5.16667,892.333 3.5,892C 2.39003,888.084 4.0567,886.084 8.5,886C 46.1351,884.011 83.8017,883.178 121.5,883.5C 121.198,703.164 121.698,522.831 123,342.5C 123.333,331.5 123.667,320.5 124,309.5C 122.96,302.874 125.793,299.707 132.5,300C 159.484,298.831 186.484,298.164 213.5,298C 504.167,297.886 794.833,298.053 1085.5,298.5C 1086.06,492.838 1087.06,687.171 1088.5,881.5C 1121.16,882.49 1153.83,883.657 1186.5,885C 1190.97,885.265 1195.3,886.099 1199.5,887.5 Z"/></g>
<g><path style="opacity:1" fill="#fefefe" d="M 172.5,345.5 C 458.5,345.5 744.5,345.5 1030.5,345.5C 1030.5,511.167 1030.5,676.833 1030.5,842.5C 744.832,842.089 459.165,841.423 173.5,840.5C 173.381,675.499 173.048,510.499 172.5,345.5 Z"/></g>
<g><path style="opacity:0.932" fill="#000000" d="M 495.5,376.5 C 556.281,374.636 603.114,398.969 636,449.5C 657.52,446.741 679.02,446.908 700.5,450C 725.605,455.551 747.605,466.884 766.5,484C 776.518,494.418 786.518,504.751 796.5,515C 841.648,510.499 881.648,522.499 916.5,551C 964.538,598.186 976.705,653.353 953,716.5C 933.639,757.193 902.473,784.36 859.5,798C 853.883,799.052 848.216,799.718 842.5,800C 693.508,802.813 544.508,803.146 395.5,801C 380.118,800.72 364.785,799.72 349.5,798C 335.645,795.939 322.979,790.939 311.5,783C 253.377,741.874 232.21,686.374 248,616.5C 262.085,575.077 288.918,544.911 328.5,526C 339.945,521.723 351.612,518.223 363.5,515.5C 368.745,462.155 394.079,421.655 439.5,394C 457.19,384.601 475.857,378.767 495.5,376.5 Z"/></g>
<g><path style="opacity:1" fill="#fefefe" d="M 496.5,389.5 C 553.003,387.496 595.837,410.496 625,458.5C 627.123,461.299 629.79,463.299 633,464.5C 672.403,454.373 709.237,460.206 743.5,482C 760.621,495.452 775.288,511.118 787.5,529C 839.704,520.512 883.87,535.345 920,573.5C 933.256,589.008 942.589,606.674 948,626.5C 960.653,690.995 939.153,740.161 883.5,774C 868.939,782.41 853.272,786.744 836.5,787C 680.832,791.619 525.165,791.619 369.5,787C 338.12,784.227 311.62,771.393 290,748.5C 251.645,703.324 244.645,653.658 269,599.5C 283.724,571.443 305.557,550.943 334.5,538C 348.291,533.263 362.124,528.763 376,524.5C 378.488,483.701 394.322,449.201 423.5,421C 444.771,403.363 469.105,392.863 496.5,389.5 Z"/></g>
<g><path style="opacity:1" fill="#565656" d="M 611.5,495.5 C 613.199,495.34 614.866,495.506 616.5,496C 659.833,519 703.167,542 746.5,565C 747.357,565.689 748.023,566.522 748.5,567.5C 704.627,591.269 660.627,614.769 616.5,638C 614.833,638.667 613.167,638.667 611.5,638C 568.302,615.063 524.968,592.063 481.5,569C 480.295,566.766 480.961,565.099 483.5,564C 526.842,541.838 569.509,519.004 611.5,495.5 Z"/></g>
<g><path style="opacity:1" fill="#fdfdfd" d="M 611.5,502.5 C 615.049,502.439 618.382,503.273 621.5,505C 659.611,525.892 697.944,546.558 736.5,567C 695.898,589.132 655.231,610.965 614.5,632.5C 573.41,611.315 532.744,589.482 492.5,567C 532.165,545.501 571.832,524.001 611.5,502.5 Z"/></g>
<g><path style="opacity:1" fill="#555555" d="M 511.5,608.5 C 513.527,608.338 515.527,608.505 517.5,609C 518.747,610.494 518.747,611.994 517.5,613.5C 509.5,617.833 501.5,622.167 493.5,626.5C 493.977,627.478 494.643,628.311 495.5,629C 534.805,650.235 574.305,671.069 614,691.5C 654.249,670.789 694.416,649.622 734.5,628C 735.833,627.333 735.833,626.667 734.5,626C 726.676,622.255 719.009,618.255 711.5,614C 709.677,609.154 711.344,607.488 716.5,609C 726.5,614.333 736.5,619.667 746.5,625C 747.747,626.494 747.747,627.994 746.5,629.5C 702.4,652.88 658.4,676.214 614.5,699.5C 570.695,676.096 526.695,652.929 482.5,630C 481.065,627.733 481.398,625.733 483.5,624C 493.056,619.059 502.39,613.892 511.5,608.5 Z"/></g>
<g><path style="opacity:1" fill="#555555" d="M 512.5,671.5 C 516.509,671.014 518.342,672.68 518,676.5C 509.942,681.399 501.775,686.066 493.5,690.5C 493.977,691.478 494.643,692.311 495.5,693C 535.065,714.074 574.732,734.908 614.5,755.5C 655.404,734.554 695.737,712.887 735.5,690.5C 727.066,686.203 718.9,681.536 711,676.5C 709.833,672.333 711.333,670.833 715.5,672C 725.183,677.842 735.183,683.176 745.5,688C 748.167,690 748.167,692 745.5,694C 707.04,714.064 668.706,734.397 630.5,755C 625.048,758.061 619.381,760.561 613.5,762.5C 570.124,739.976 526.791,717.143 483.5,694C 481.485,692.445 481.152,690.611 482.5,688.5C 492.607,682.818 502.607,677.151 512.5,671.5 Z"/></g>
<g><path style="opacity:0.947" fill="#000000" d="M 476.5,900.5 C 679.167,900.832 881.834,901.332 1084.5,902C 1120.55,902.026 1156.55,902.692 1192.5,904C 1190.11,905.861 1187.45,907.194 1184.5,908C 1160.29,914.792 1135.62,918.792 1110.5,920C 798.503,922.874 486.503,923.208 174.5,921C 143.152,920.853 111.818,920.186 80.5,919C 62.2602,916.485 44.2602,912.819 26.5,908C 23.8877,907.361 21.5543,906.194 19.5,904.5C 23.1224,903.675 26.789,903.175 30.5,903C 179.331,902.016 327.998,901.183 476.5,900.5 Z"/></g>
</svg>
